src/icons/logos/monogram.svg

<svg width="240" height="40" viewBox="0 0 240 40" fill="none" xmlns="http://www.w3.org/2000/svg">
<path fill-rule="evenodd" clip-rule="evenodd" d="M31 40L27 29.4L23 40H21L26 26.8L22 16.3L13 40H11L21 13.6L16.5 1.8L2 40H0L15.2 0H17.8L22 11L26.2 0H28.8L32.5 9.7L36.2 0H38.8L43 11L47.2 0H49.8L65 40H63L48.5 1.8L44 13.6L54 40H52L43 16.3L39 26.8L44 40H42L38 29.4L34 40H31ZM32.5 15L28 26.7L32.5 38.6L37 26.8L32.5 15ZM27.5 1.8L23 13.6L27 24.2L31.5 12.3L27.5 1.8ZM37.5 1.8L33.5 12.3L38 24.2L42 13.6L37.5 1.8Z" fill="currentColor"/>
<path d="M97.7259 17.956V29H100.432V13.6H97.5499L92.8639 20.882L88.1779 13.6H85.2959V29H87.9579V18L92.7759 25.216H92.8639L97.7259 17.956Z" fill="currentColor"/>
<path d="M121.687 21.278C121.687 20.1927 121.489 19.166 121.093 18.198C120.697 17.23 120.147 16.3867 119.443 15.668C118.739 14.9493 117.896 14.3847 116.913 13.974C115.931 13.5487 114.845 13.336 113.657 13.336C112.469 13.336 111.384 13.5487 110.401 13.974C109.419 14.3993 108.568 14.9787 107.849 15.712C107.131 16.4307 106.573 17.274 106.177 18.242C105.781 19.21 105.583 20.2367 105.583 21.322C105.583 22.4073 105.781 23.434 106.177 24.402C106.573 25.37 107.123 26.2133 107.827 26.932C108.531 27.6507 109.375 28.2227 110.357 28.648C111.34 29.0587 112.425 29.264 113.613 29.264C114.801 29.264 115.887 29.0513 116.869 28.626C117.852 28.2007 118.703 27.6287 119.421 26.91C120.14 26.1767 120.697 25.326 121.093 24.358C121.489 23.39 121.687 22.3633 121.687 21.278ZM118.849 21.322C118.849 22.07 118.717 22.7813 118.453 23.456C118.204 24.116 117.852 24.6953 117.397 25.194C116.943 25.678 116.393 26.0667 115.747 26.36C115.117 26.6387 114.42 26.778 113.657 26.778C112.895 26.778 112.191 26.6313 111.545 26.338C110.9 26.0447 110.343 25.6487 109.873 25.15C109.419 24.6513 109.059 24.072 108.795 23.412C108.546 22.7373 108.421 22.026 108.421 21.278C108.421 20.53 108.546 19.826 108.795 19.166C109.059 18.4913 109.419 17.912 109.873 17.428C110.328 16.9293 110.871 16.5407 111.501 16.262C112.147 15.9687 112.851 15.822 113.613 15.822C114.376 15.822 115.08 15.9687 115.725 16.262C116.371 16.5553 116.921 16.9513 117.375 17.45C117.845 17.9487 118.204 18.5353 118.453 19.21C118.717 19.87 118.849 20.574 118.849 21.322Z" fill="currentColor"/>
<path d="M137.585 24.248L129.335 13.6H126.827V29H129.489V18.044L137.981 29H140.247V13.6H137.585V24.248Z" fill="currentColor"/>
<path d="M161.5 21.278C161.5 20.1927 161.302 19.166 160.906 18.198C160.51 17.23 159.96 16.3867 159.256 15.668C158.552 14.9493 157.708 14.3847 156.726 13.974C155.743 13.5487 154.658 13.336 153.47 13.336C152.282 13.336 151.196 13.5487 150.214 13.974C149.231 14.3993 148.38 14.9787 147.662 15.712C146.943 16.4307 146.386 17.274 145.99 18.242C145.594 19.21 145.396 20.2367 145.396 21.322C145.396 22.4073 145.594 23.434 145.99 24.402C146.386 25.37 146.936 26.2133 147.64 26.932C148.344 27.6507 149.187 28.2227 150.17 28.648C151.152 29.0587 152.238 29.264 153.426 29.264C154.614 29.264 155.699 29.0513 156.682 28.626C157.664 28.2007 158.515 27.6287 159.234 26.91C159.952 26.1767 160.51 25.326 160.906 24.358C161.302 23.39 161.5 22.3633 161.5 21.278ZM158.662 21.322C158.662 22.07 158.53 22.7813 158.266 23.456C158.016 24.116 157.664 24.6953 157.21 25.194C156.755 25.678 156.205 26.0667 155.56 26.36C154.929 26.6387 154.232 26.778 153.47 26.778C152.707 26.778 152.003 26.6313 151.358 26.338C150.712 26.0447 150.155 25.6487 149.686 25.15C149.231 24.6513 148.872 24.072 148.608 23.412C148.358 22.7373 148.234 22.026 148.234 21.278C148.234 20.53 148.358 19.826 148.608 19.166C148.872 18.4913 149.231 17.912 149.686 17.428C150.14 16.9293 150.683 16.5407 151.314 16.262C151.959 15.9687 152.663 15.822 153.426 15.822C154.188 15.822 154.892 15.9687 155.538 16.262C156.183 16.5553 156.733 16.9513 157.188 17.45C157.657 17.9487 158.016 18.5353 158.266 19.21C158.53 19.87 158.662 20.574 158.662 21.322Z" fill="currentColor"/>
<path d="M180.367 26.866V20.398H173.811V22.752H177.749V25.634C177.28 25.986 176.722 26.272 176.077 26.492C175.446 26.6973 174.764 26.8 174.031 26.8C173.239 26.8 172.52 26.6607 171.875 26.382C171.244 26.1033 170.694 25.722 170.225 25.238C169.77 24.7393 169.418 24.1527 169.169 23.478C168.92 22.8033 168.795 22.07 168.795 21.278C168.795 20.53 168.92 19.826 169.169 19.166C169.433 18.506 169.785 17.9267 170.225 17.428C170.68 16.9293 171.208 16.5407 171.809 16.262C172.425 15.9687 173.085 15.822 173.789 15.822C174.273 15.822 174.713 15.866 175.109 15.954C175.52 16.0273 175.894 16.1373 176.231 16.284C176.568 16.416 176.891 16.5847 177.199 16.79C177.507 16.9953 177.808 17.2227 178.101 17.472L179.817 15.426C179.421 15.0887 179.01 14.7953 178.585 14.546C178.174 14.282 177.734 14.062 177.265 13.886C176.796 13.71 176.282 13.578 175.725 13.49C175.182 13.3873 174.574 13.336 173.899 13.336C172.74 13.336 171.67 13.5487 170.687 13.974C169.719 14.3993 168.883 14.9787 168.179 15.712C167.475 16.4307 166.925 17.274 166.529 18.242C166.148 19.21 165.957 20.2367 165.957 21.322C165.957 22.4513 166.148 23.5 166.529 24.468C166.91 25.436 167.446 26.2793 168.135 26.998C168.839 27.702 169.682 28.2593 170.665 28.67C171.648 29.066 172.74 29.264 173.943 29.264C174.618 29.264 175.263 29.198 175.879 29.066C176.495 28.9487 177.067 28.78 177.595 28.56C178.138 28.34 178.636 28.0833 179.091 27.79C179.56 27.4967 179.986 27.1887 180.367 26.866Z" fill="currentColor"/>
<path d="M198.829 29L194.671 23.17C195.214 23.0233 195.705 22.818 196.145 22.554C196.6 22.2753 196.988 21.9453 197.311 21.564C197.634 21.168 197.883 20.7207 198.059 20.222C198.25 19.7087 198.345 19.1293 198.345 18.484C198.345 17.736 198.213 17.0613 197.949 16.46C197.685 15.844 197.304 15.3307 196.805 14.92C196.321 14.4947 195.72 14.172 195.001 13.952C194.297 13.7173 193.505 13.6 192.625 13.6H185.761V29H188.467V23.632H191.855L195.639 29H198.829ZM195.595 18.638C195.595 19.43 195.309 20.0607 194.737 20.53C194.165 20.9993 193.395 21.234 192.427 21.234H188.467V16.064H192.405C193.417 16.064 194.202 16.284 194.759 16.724C195.316 17.1493 195.595 17.7873 195.595 18.638Z" fill="currentColor"/>
<path d="M211.934 13.49H209.426L202.65 29H205.422L207.006 25.282H214.288L215.85 29H218.71L211.934 13.49ZM213.298 22.884H207.996L210.636 16.724L213.298 22.884Z" fill="currentColor"/>
<path d="M236.31 17.956V29H239.016V13.6H236.134L231.448 20.882L226.762 13.6H223.88V29H226.542V18L231.36 25.216H231.448L236.31 17.956Z" fill="currentColor"/>
</svg>

<svg xmlns="http://www.w3.org/2000/svg" width="240" height="40" fill="none">
    <path fill="currentColor" fill-rule="evenodd"
        d="m31 40-4-10.6L23 40h-2l5-13.2-4-10.5L13 40h-2l10-26.4-4.5-11.8L2 40H0L15.2 0h2.6L22 11l4.2-11h2.6l3.7 9.7L36.2 0h2.6L43 11l4.2-11h2.6L65 40h-2L48.5 1.8 44 13.6 54 40h-2l-9-23.7-4 10.5L44 40h-2l-4-10.6L34 40h-3Zm1.5-25L28 26.7l4.5 11.9L37 26.8 32.5 15Zm-5-13.2L23 13.6l4 10.6 4.5-11.9-4-10.5Zm10 0-4 10.5L38 24.2l4-10.6-4.5-11.8Z"
        clip-rule="evenodd" />
    <path fill="currentColor"
        d="M97.726 17.956V29h2.706V13.6H97.55l-4.686 7.282-4.686-7.282h-2.882V29h2.662V18l4.818 7.216h.088l4.862-7.26ZM121.687 21.278a8.055 8.055 0 0 0-.594-3.08 7.788 7.788 0 0 0-1.65-2.53 7.591 7.591 0 0 0-2.53-1.694c-.982-.425-2.068-.638-3.256-.638-1.188 0-2.273.213-3.256.638a7.968 7.968 0 0 0-2.552 1.738 7.625 7.625 0 0 0-1.672 2.53 8.055 8.055 0 0 0-.594 3.08c0 1.085.198 2.112.594 3.08a7.788 7.788 0 0 0 1.65 2.53 7.883 7.883 0 0 0 2.53 1.716c.983.41 2.068.616 3.256.616 1.188 0 2.274-.213 3.256-.638a8.127 8.127 0 0 0 2.552-1.716 7.855 7.855 0 0 0 1.672-2.552 8.055 8.055 0 0 0 .594-3.08Zm-2.838.044c0 .748-.132 1.46-.396 2.134a5.354 5.354 0 0 1-1.056 1.738 5.153 5.153 0 0 1-1.65 1.166 5.11 5.11 0 0 1-2.09.418 5.048 5.048 0 0 1-2.112-.44 5.267 5.267 0 0 1-1.672-1.188 5.702 5.702 0 0 1-1.078-1.738 6.114 6.114 0 0 1-.374-2.134c0-.748.125-1.452.374-2.112a5.368 5.368 0 0 1 1.078-1.738 4.813 4.813 0 0 1 1.628-1.166 5.048 5.048 0 0 1 2.112-.44 5.042 5.042 0 0 1 3.762 1.628c.47.499.829 1.085 1.078 1.76.264.66.396 1.364.396 2.112ZM137.585 24.248l-8.25-10.648h-2.508V29h2.662V18.044L137.981 29h2.266V13.6h-2.662v10.648ZM161.5 21.278a8.055 8.055 0 0 0-.594-3.08 7.788 7.788 0 0 0-1.65-2.53 7.601 7.601 0 0 0-2.53-1.694c-.983-.425-2.068-.638-3.256-.638-1.188 0-2.274.213-3.256.638a7.946 7.946 0 0 0-2.552 1.738 7.61 7.61 0 0 0-1.672 2.53 8.055 8.055 0 0 0-.594 3.08c0 1.085.198 2.112.594 3.08a7.788 7.788 0 0 0 1.65 2.53 7.872 7.872 0 0 0 2.53 1.716c.982.41 2.068.616 3.256.616 1.188 0 2.273-.213 3.256-.638a8.15 8.15 0 0 0 2.552-1.716 7.871 7.871 0 0 0 1.672-2.552 8.055 8.055 0 0 0 .594-3.08Zm-2.838.044c0 .748-.132 1.46-.396 2.134-.25.66-.602 1.24-1.056 1.738a5.175 5.175 0 0 1-1.65 1.166 5.118 5.118 0 0 1-2.09.418 5.042 5.042 0 0 1-2.112-.44 5.245 5.245 0 0 1-1.672-1.188 5.682 5.682 0 0 1-1.078-1.738 6.091 6.091 0 0 1-.374-2.134c0-.748.124-1.452.374-2.112a5.351 5.351 0 0 1 1.078-1.738 4.794 4.794 0 0 1 1.628-1.166 5.042 5.042 0 0 1 2.112-.44 5.048 5.048 0 0 1 3.762 1.628 5.146 5.146 0 0 1 1.078 1.76c.264.66.396 1.364.396 2.112ZM180.367 26.866v-6.468h-6.556v2.354h3.938v2.882a5.98 5.98 0 0 1-1.672.858 6.577 6.577 0 0 1-2.046.308c-.792 0-1.511-.14-2.156-.418a5.197 5.197 0 0 1-1.65-1.144 5.304 5.304 0 0 1-1.056-1.76 6.307 6.307 0 0 1-.374-2.2c0-.748.125-1.452.374-2.112a5.93 5.93 0 0 1 1.056-1.738 4.939 4.939 0 0 1 1.584-1.166 4.547 4.547 0 0 1 1.98-.44c.484 0 .924.044 1.32.132.411.073.785.183 1.122.33.337.132.66.3.968.506.308.205.609.433.902.682l1.716-2.046a8.652 8.652 0 0 0-1.232-.88 6.957 6.957 0 0 0-1.32-.66 7.88 7.88 0 0 0-1.54-.396 9.864 9.864 0 0 0-1.826-.154c-1.159 0-2.229.213-3.212.638a7.766 7.766 0 0 0-2.508 1.738 7.788 7.788 0 0 0-1.65 2.53 8.334 8.334 0 0 0-.572 3.08c0 1.13.191 2.178.572 3.146a7.677 7.677 0 0 0 1.606 2.53 7.765 7.765 0 0 0 2.53 1.672c.983.396 2.075.594 3.278.594.675 0 1.32-.066 1.936-.198a8.665 8.665 0 0 0 1.716-.506 8.965 8.965 0 0 0 1.496-.77c.469-.293.895-.601 1.276-.924ZM198.829 29l-4.158-5.83a5.775 5.775 0 0 0 1.474-.616 4.795 4.795 0 0 0 1.166-.99c.323-.396.572-.843.748-1.342.191-.513.286-1.093.286-1.738 0-.748-.132-1.423-.396-2.024a4.002 4.002 0 0 0-1.144-1.54c-.484-.425-1.085-.748-1.804-.968-.704-.235-1.496-.352-2.376-.352h-6.864V29h2.706v-5.368h3.388L195.639 29h3.19Zm-3.234-10.362c0 .792-.286 1.423-.858 1.892-.572.47-1.342.704-2.31.704h-3.96v-5.17h3.938c1.012 0 1.797.22 2.354.66.557.425.836 1.063.836 1.914ZM211.934 13.49h-2.508L202.65 29h2.772l1.584-3.718h7.282L215.85 29h2.86l-6.776-15.51Zm1.364 9.394h-5.302l2.64-6.16 2.662 6.16ZM236.31 17.956V29h2.706V13.6h-2.882l-4.686 7.282-4.686-7.282h-2.882V29h2.662V18l4.818 7.216h.088l4.862-7.26Z" />
</svg>
